src/images/phone.inline.svg

<svg width="498" height="980" viewBox="0 0 498 980" fill="none" xmlns="http://www.w3.org/2000/svg">
<path opacity="0.2" d="M388 8H92C41.1898 8 0 49.1898 0 100V888C0 938.81 41.1898 980 92 980H388C438.81 980 480 938.81 480 888V100C480 49.1898 438.81 8 388 8Z" fill="#041320"/>
<path opacity="0.4" d="M106.385 1H413.615C458.56 1 495 37.0856 495 81.5932V871.407C495 915.914 458.56 952 413.615 952H106.385C61.4403 952 25 915.914 25 871.407V81.5932C25 37.0856 61.4403 1 106.385 1Z" fill="#041320"/>
<rect x="33" width="462" height="944" rx="72" fill="#334D50"/>
<rect x="41" y="8" width="446" height="928" rx="64" fill="black"/>
<rect x="57" y="24" width="414" height="896" rx="44" fill="#121212"/>
<path d="M494 187C494 186.448 494.448 186 495 186H496V258H495C494.448 258 494 257.552 494 257V187Z" fill="#263F42"/>
<path d="M496 186H497C497.552 186 498 186.448 498 187V257C498 257.552 497.552 258 497 258H496V186Z" fill="#3C5D61"/>
<path d="M35 251C35 250.448 34.5523 250 34 250H33V298H34C34.5523 298 35 297.552 35 297V251Z" fill="#263F42"/>
<path d="M33 250H32C31.4477 250 31 250.448 31 251V297C31 297.552 31.4477 298 32 298H33V250Z" fill="#3C5D61"/>
<path d="M35 187C35 186.448 34.5523 186 34 186H33V234H34C34.5523 234 35 233.552 35 233V187Z" fill="#263F42"/>
<path d="M33 186H32C31.4477 186 31 186.448 31 187V233C31 233.552 31.4477 234 32 234H33V186Z" fill="#3C5D61"/>
<path d="M35 131C35 130.448 34.5523 130 34 130H33V162H34C34.5523 162 35 161.552 35 161V131Z" fill="#263F42"/>
<path d="M33 130H32C31.4477 130 31 130.448 31 131V161C31 161.552 31.4477 162 32 162H33V130Z" fill="#3C5D61"/>
<rect x="33" y="834" width="8" height="8" fill="#2A3C51"/>
<rect x="487" y="834" width="8" height="8" fill="#2A3C51"/>
<rect x="33" y="96" width="8" height="8" fill="#2A3C51"/>
<rect x="487" y="96" width="8" height="8" fill="#2A3C51"/>
<rect x="196" y="907" width="134" height="5" rx="2.5" fill="white"/>
<path d="M57 68C57 43.6995 76.6995 24 101 24H427C451.301 24 471 43.6995 471 68V68H57V68Z" fill="#121212"/>
<path d="M94.1341 52.2563C96.8221 52.2563 98.4187 50.1543 98.4187 46.5874C98.4187 43.0864 96.7195 41.1675 94.1927 41.1675C91.8929 41.1675 90.2669 42.7129 90.2669 44.8735C90.2669 46.9023 91.7317 48.3818 93.7459 48.3818C94.9837 48.3818 95.9871 47.8105 96.4852 46.8071H96.6097C96.5877 49.29 95.7015 50.7109 94.1561 50.7109C93.2479 50.7109 92.5228 50.2129 92.2957 49.4072H90.4134C90.721 51.1284 92.2005 52.2563 94.1341 52.2563ZM94.2 46.9243C92.9695 46.9243 92.1199 46.0601 92.1199 44.8149C92.1199 43.6211 93.0135 42.7056 94.2073 42.7056C95.4012 42.7056 96.2947 43.6357 96.2947 44.8516C96.2947 46.0527 95.4231 46.9243 94.2 46.9243ZM101.437 45.1592C102.132 45.1592 102.608 44.6758 102.608 44.0239C102.608 43.3721 102.132 42.8887 101.437 42.8887C100.748 42.8887 100.265 43.3721 100.265 44.0239C100.265 44.6758 100.748 45.1592 101.437 45.1592ZM101.437 50.5352C102.132 50.5352 102.608 50.0444 102.608 49.3999C102.608 48.748 102.132 48.2646 101.437 48.2646C100.748 48.2646 100.265 48.748 100.265 49.3999C100.265 50.0444 100.748 50.5352 101.437 50.5352ZM109.611 52H111.42V49.9712H112.848V48.4111H111.42V41.4312H108.754C107.318 43.6138 105.817 46.0454 104.447 48.4258V49.9712H109.611V52ZM106.198 48.3452C107.23 46.5508 108.454 44.5952 109.537 42.9399H109.64V48.4551H106.198V48.3452ZM116.877 52H118.766V41.4312H116.884L114.123 43.3721V45.1519L116.752 43.2915H116.877V52Z" fill="white"/>
<rect opacity="0.35" x="432.833" y="41.8333" width="21" height="10.3333" rx="2.16667" stroke="white"/>
<path opacity="0.4" d="M455.333 45V49C456.138 48.6612 456.661 47.8731 456.661 47C456.661 46.1269 456.138 45.3388 455.333 45" fill="white"/>
<rect x="434.333" y="43.3333" width="18" height="7.33333" rx="1.33333" fill="white"/>
<path fill-rule="evenodd" clip-rule="evenodd" d="M419.667 43.615C421.892 43.6151 424.031 44.4693 425.644 46.0008C425.765 46.1191 425.959 46.1176 426.079 45.9975L427.239 44.8272C427.3 44.7663 427.334 44.6837 427.333 44.5979C427.333 44.5121 427.298 44.4299 427.237 44.3697C423.005 40.3175 416.329 40.3175 412.097 44.3697C412.035 44.4299 412.001 44.512 412 44.5978C411.999 44.6837 412.033 44.7662 412.094 44.8272L413.255 45.9975C413.374 46.1178 413.568 46.1193 413.69 46.0008C415.302 44.4692 417.442 43.615 419.667 43.615ZM419.667 47.4226C420.889 47.4226 422.068 47.8765 422.974 48.6963C423.097 48.8126 423.29 48.8101 423.409 48.6906L424.569 47.5203C424.63 47.4589 424.663 47.3756 424.663 47.2891C424.662 47.2025 424.626 47.12 424.564 47.0598C421.805 44.4954 417.532 44.4954 414.773 47.0598C414.71 47.12 414.675 47.2026 414.674 47.2891C414.673 47.3757 414.707 47.459 414.768 47.5203L415.927 48.6906C416.047 48.8101 416.24 48.8126 416.362 48.6963C417.268 47.877 418.446 47.4231 419.667 47.4226ZM421.989 49.9845C421.991 50.0712 421.957 50.1549 421.895 50.2157L419.89 52.2377C419.831 52.2971 419.751 52.3306 419.667 52.3306C419.583 52.3306 419.503 52.2971 419.445 52.2377L417.439 50.2157C417.377 50.1549 417.343 50.0712 417.345 49.9844C417.347 49.8976 417.384 49.8154 417.449 49.7573C418.729 48.675 420.605 48.675 421.886 49.7573C421.95 49.8155 421.988 49.8977 421.989 49.9845Z" fill="white"/>
<path fill-rule="evenodd" clip-rule="evenodd" d="M406 41.6667H405C404.448 41.6667 404 42.1145 404 42.6667V51.3334C404 51.8857 404.448 52.3334 405 52.3334H406C406.552 52.3334 407 51.8857 407 51.3334V42.6667C407 42.1145 406.552 41.6667 406 41.6667ZM400.333 44.0001H401.333C401.886 44.0001 402.333 44.4478 402.333 45.0001V51.3334C402.333 51.8857 401.886 52.3334 401.333 52.3334H400.333C399.781 52.3334 399.333 51.8857 399.333 51.3334V45.0001C399.333 44.4478 399.781 44.0001 400.333 44.0001ZM396.667 46.3334H395.667C395.114 46.3334 394.667 46.7811 394.667 47.3334V51.3334C394.667 51.8857 395.114 52.3334 395.667 52.3334H396.667C397.219 52.3334 397.667 51.8857 397.667 51.3334V47.3334C397.667 46.7811 397.219 46.3334 396.667 46.3334ZM392 48.3334H391C390.448 48.3334 390 48.7811 390 49.3334V51.3334C390 51.8857 390.448 52.3334 391 52.3334H392C392.552 52.3334 393 51.8857 393 51.3334V49.3334C393 48.7811 392.552 48.3334 392 48.3334Z" fill="white"/>
<path d="M158 24H370C365.507 24.5761 364.821 27.975 364.821 31.1578C364.821 41.0522 357.612 53 342 53H263H186C170.388 53 163.179 41.0522 163.179 31.1578C163.179 27.975 162.493 24.5761 158 24Z" fill="black"/>
<rect x="221" y="35" width="72" height="8" rx="4" fill="#212121"/>
<rect x="306" y="31" width="16" height="16" rx="8" fill="url(#paint0_linear)"/>
<rect x="309.5" y="34.5" width="9" height="9" rx="4.5" fill="#002848" stroke="black"/>
<path d="M496 186H497C497.552 186 498 186.448 498 187V188H496V186Z" fill="#263F42"/>
<path d="M496 256H498V257C498 257.552 497.552 258 497 258H496V256Z" fill="#263F42"/>
<defs>
<linearGradient id="paint0_linear" x1="314" y1="31" x2="314" y2="47" gradientUnits="userSpaceOnUse">
<stop/>
<stop offset="1" stop-color="#212121"/>
</linearGradient>
</defs>
</svg>

<svg viewBox="0 0 498 980" width="498" height="980" fill="none" xmlns="http://www.w3.org/2000/svg" color-interpolation-filters="sRGB">
  <g class="fill-shadow">
    <path d="M388 8H92C41.19 8 0 49.19 0 100v788c0 50.81 41.19 92 92 92h296c50.81 0 92-41.19 92-92V100c0-50.81-41.19-92-92-92z" class="opacity-20"/>
    <path d="M106.385 1h307.23C458.56 1 495 37.086 495 81.593v789.814C495 915.914 458.56 952 413.615 952h-307.23C61.44 952 25 915.914 25 871.407V81.593C25 37.086 61.44 1 106.385 1z" class="opacity-40"/>
  </g>
  <rect x="33" width="462" height="944" rx="72" fill="#334D50"/>
  <rect x="41" y="8" width="446" height="928" rx="64" fill="#000"/>
  <rect x="57" y="24" width="414" height="896" rx="44" fill="#121212"/>
  <path d="M494 187a1 1 0 011-1h1v72h-1a1 1 0 01-1-1v-70z" fill="#263F42"/>
  <path d="M496 186h1a1 1 0 011 1v70a1 1 0 01-1 1h-1v-72z" fill="#3C5D61"/>
  <path d="M35 251a1 1 0 00-1-1h-1v48h1a1 1 0 001-1v-46z" fill="#263F42"/>
  <path d="M33 250h-1a1 1 0 00-1 1v46a1 1 0 001 1h1v-48z" fill="#3C5D61"/>
  <path d="M35 187a1 1 0 00-1-1h-1v48h1a1 1 0 001-1v-46z" fill="#263F42"/>
  <path d="M33 186h-1a1 1 0 00-1 1v46a1 1 0 001 1h1v-48z" fill="#3C5D61"/>
  <path d="M35 131a1 1 0 00-1-1h-1v32h1a1 1 0 001-1v-30z" fill="#263F42"/>
  <path d="M33 130h-1a1 1 0 00-1 1v30a1 1 0 001 1h1v-32z" fill="#3C5D61"/>
  <path fill="#2A3C51" d="M33 834h8v8h-8zM487 834h8v8h-8zM33 96h8v8h-8zM487 96h8v8h-8z"/>
  <rect x="196" y="907" width="134" height="5" rx="2.5" fill="#fff" class="home-area"/>
  <path d="M57 68c0-24.3 19.7-44 44-44h326c24.301 0 44 19.7 44 44H57z" fill="#121212"/>
  <g class="status-bar">
    <path d="M94.134 52.256c2.688 0 4.285-2.102 4.285-5.669 0-3.5-1.7-5.42-4.226-5.42-2.3 0-3.926 1.546-3.926 3.706 0 2.03 1.465 3.509 3.479 3.509 1.238 0 2.241-.572 2.74-1.575h.124c-.022 2.483-.909 3.904-2.454 3.904-.908 0-1.633-.498-1.86-1.304h-1.883c.308 1.721 1.788 2.85 3.721 2.85zm.066-5.332c-1.23 0-2.08-.864-2.08-2.11 0-1.193.893-2.108 2.087-2.108 1.194 0 2.088.93 2.088 2.146 0 1.2-.872 2.072-2.095 2.072zm7.237-1.765c.695 0 1.171-.483 1.171-1.135s-.476-1.135-1.171-1.135c-.689 0-1.172.483-1.172 1.135s.483 1.135 1.172 1.135zm0 5.376c.695 0 1.171-.49 1.171-1.135 0-.652-.476-1.135-1.171-1.135-.689 0-1.172.483-1.172 1.135 0 .644.483 1.135 1.172 1.135zM109.611 52h1.809v-2.029h1.428v-1.56h-1.428v-6.98h-2.666a140.658 140.658 0 00-4.307 6.995v1.545h5.164V52zm-3.413-3.655a115.513 115.513 0 013.339-5.405h.103v5.515h-3.442v-.11zM116.877 52h1.889V41.431h-1.882l-2.761 1.941v1.78l2.629-1.86h.125V52z" fill="currentcolor"/>
    <rect opacity=".35" x="432.833" y="41.833" width="21" height="10.333" rx="2.167" stroke="currentcolor"/>
    <path opacity=".4" d="M455.333 45v4a2.17 2.17 0 000-4z" fill="#fff"/>
    <rect x="434.333" y="43.333" width="18" height="7.333" rx="1.333" fill="#fff"/>
    <path fill-rule="evenodd" clip-rule="evenodd" d="M419.667 43.615a8.68 8.68 0 015.977 2.386.31.31 0 00.435-.003l1.16-1.17a.321.321 0 00-.002-.457c-4.232-4.053-10.908-4.053-15.14-.001a.322.322 0 00-.003.457l1.161 1.17c.119.12.313.122.435.004a8.677 8.677 0 015.977-2.386zm0 3.808a4.93 4.93 0 013.307 1.273.312.312 0 00.435-.005l1.16-1.17a.325.325 0 00-.005-.46 7.192 7.192 0 00-9.791-.001.321.321 0 00-.005.46l1.159 1.17c.12.12.313.123.435.006a4.932 4.932 0 013.305-1.273zm2.322 2.562a.314.314 0 01-.094.23l-2.005 2.023a.314.314 0 01-.445 0l-2.006-2.022a.314.314 0 01.01-.459 3.438 3.438 0 014.437 0c.064.059.102.14.103.228zM406 41.667h-1a1 1 0 00-1 1v8.666a1 1 0 001 1h1a1 1 0 001-1v-8.666a1 1 0 00-1-1zM400.333 44h1a1 1 0 011 1v6.333a1 1 0 01-1 1h-1a1 1 0 01-1-1V45a1 1 0 011-1zm-3.666 2.333h-1a1 1 0 00-1 1v4a1 1 0 001 1h1a1 1 0 001-1v-4a1 1 0 00-1-1zm-4.667 2h-1a1 1 0 00-1 1v2a1 1 0 001 1h1a1 1 0 001-1v-2a1 1 0 00-1-1z" fill="currentcolor"/>
  </g>
  <path d="M158 24h212c-4.493.576-5.179 3.975-5.179 7.158C364.821 41.052 357.612 53 342 53H186c-15.612 0-22.821-11.948-22.821-21.842 0-3.183-.686-6.582-5.179-7.158z" fill="#000"/>
  <rect x="221" y="35" width="72" height="8" rx="4" fill="#212121"/>
  <rect x="306" y="31" width="16" height="16" rx="8" fill="url(#paint0_linear)"/>
  <rect x="309.5" y="34.5" width="9" height="9" rx="4.5" fill="#002848" stroke="#000"/>
  <path d="M496 186h1a1 1 0 011 1v1h-2v-2zM496 256h2v1a1 1 0 01-1 1h-1v-2z" fill="#263F42"/>
  <defs>
    <linearGradient id="paint0_linear" x1="314" y1="31" x2="314" y2="47" gradientUnits="userSpaceOnUse">
      <stop/>
      <stop offset="1" stop-color="#212121"/>
    </linearGradient>
  </defs>
</svg>
